X:1
T:Title
%%score 1 { ( 2 4 ) | ( 3 5 ) }
L:1/8
M:4/4
K:F
V:1 treble nm="Akkordion"
V:2 treble nm="Grand Piano"
V:4 treble 
V:3 bass 
V:5 bass 
V:1
 z4 z2[Q:1/4=100] C2 | C2 A2 A2 F2 | F2 E4 C2 | C2 B2 E2 B2 | A6 c2 | c2 A2 F2 A2 | A2 G4 F2 | %7
 E2 G2 D2 G2 | C6 C2 | C2 D2 E2 B2 |[M:3/4] B2 A4 |[M:1/4] A2 |[M:4/4] A2 G2 F2 G2 | A6 z2 | %14
[M:3/4] D2 F2 B2 | A3 G F2 | G3 F G2 |[M:2/4] F4 |] %18
V:2
 z8 | z2 F2 F2 F2 | z2 E2 E2 E2 | E,2 F2 C,2 E2 | z2[K:treble] F2 F2 F2 | F,2 F2[K:bass] A,,2 F2 | %6
 z2[K:treble] G2 G2 G2 | G,,2 E2 G,,2[K:treble] F2 | E6[K:bass] z2 | C2 D2[K:treble] E2 G2 | %10
[M:3/4] z2 F2 F2 |[M:1/4] A2 |[M:4/4] A2 G2 F2 [DG]2 | [^CA]6 z2 |[M:3/4] D2 F2 [DB]2 | %15
 [CA]3 G F2 | [B,G]3 F G2 |[M:2/4] [A,F]4 |] %18
V:3
 z8 | z2 [A,C]2 [A,C]2 [A,C]2 | z2 [B,C]2 [B,C]2 [B,C]2 | z2 B,2 z2 [B,C]2 | %4
 z2 [A,C]2 [A,C]2 [A,C]2 | z2 [A,C]2 z2 [A,C]2 | z2 [B,D]2 [B,D]2 [B,D]2 | z2 [G,C]2 z2 [=B,D]2 | %8
 C6 z2 | [C,E,]2 [C,F,=B,]2 [C,G,_B,]2 z2 |[M:3/4] z2 [A,C]2 [A,C]2 |[M:1/4] A,2 | %12
[M:4/4] A,2 G,2 F,2 [B,,D,]2 | [A,,E,]6 z2 |[M:3/4] [B,,B,C]4 [B,,F,]2 | z2 z B, A,2 | %16
 z2 z A, B,2 |[M:2/4] [F,,C,]4 |] %18
V:4
 x8 | F,4 z4 | G,4 z4 | x8 | F,4[K:treble] z4 | x4[K:bass] x4 | B,,4[K:treble] z4 | %7
 x6[K:treble] x2 | z2[K:bass] G,,2 C,,2 C2 | x4[K:treble] x4 |[M:3/4] F,4 z2 |[M:1/4] x2 | %12
[M:4/4] x8 | x8 |[M:3/4] x6 | x6 | x6 |[M:2/4] x4 |] %18
V:5
 x8 | x8 | x8 | x8 | x8 | x8 | x8 | x8 | C,2 z2 z4 | x8 |[M:3/4] x6 |[M:1/4] x2 |[M:4/4] x8 | x8 | %14
[M:3/4] x6 | C,6 | [C,,C,]6 |[M:2/4] x4 |] %18

